SVG_Azure_All/Application Supply Chain Management.svg

<?xml version="1.0" encoding="UTF-8" standalone="no"?>
<!-- Generated by Microsoft Visio, SVG Export Application Supply Chain Management.svg Page-1 -->

<svg
   xmlns:dc="http://purl.org/dc/elements/1.1/"
   xmlns:cc="http://creativecommons.org/ns#"
   xmlns:rdf="http://www.w3.org/1999/02/22-rdf-syntax-ns#"
   xmlns:svg="http://www.w3.org/2000/svg"
   xmlns="http://www.w3.org/2000/svg"
   xmlns:sodipodi="http://sodipodi.sourceforge.net/DTD/sodipodi-0.dtd"
   xmlns:inkscape="http://www.inkscape.org/namespaces/inkscape"
   width="0.78745002in"
   height="0.7087028in"
   viewBox="0 0 56.696399 51.02652"
   xml:space="preserve"
   class="st6"
   version="1.1"
   id="svg58"
   sodipodi:docname="Application Supply Chain Management.svg"
   style="font-size:12px;overflow:visible;color-interpolation-filters:sRGB;fill:none;fill-rule:evenodd;stroke-linecap:square;stroke-miterlimit:3"
   inkscape:version="0.92.5 (2060ec1f9f, 2020-04-08)"><metadata
   id="metadata62"><rdf:RDF><cc:Work
       rdf:about=""><dc:format>image/svg+xml</dc:format><dc:type
         rdf:resource="http://purl.org/dc/dcmitype/StillImage" /></cc:Work></rdf:RDF></metadata><sodipodi:namedview
   pagecolor="#ffffff"
   bordercolor="#666666"
   borderopacity="1"
   objecttolerance="10"
   gridtolerance="10"
   guidetolerance="10"
   inkscape:pageopacity="0"
   inkscape:pageshadow="2"
   inkscape:window-width="640"
   inkscape:window-height="480"
   id="namedview60"
   showgrid="false"
   inkscape:zoom="1.963572"
   inkscape:cx="37.795281"
   inkscape:cy="14.737934"
   inkscape:window-x="0"
   inkscape:window-y="0"
   inkscape:window-maximized="0"
   inkscape:current-layer="svg58" />
	<style
   type="text/css"
   id="style2">
	<![CDATA[
		.st1 {fill:url(#grad0-7);stroke:none;stroke-linecap:butt;stroke-width:0.75}
		.st2 {fill:url(#grad0-11);stroke:none;stroke-linecap:butt;stroke-width:0.75}
		.st3 {fill:#000000;fill-opacity:0.32;stroke:none;stroke-linecap:butt;stroke-width:0.75}
		.st4 {fill:#000000;fill-opacity:0.24;stroke:none;stroke-linecap:butt;stroke-width:0.75}
		.st5 {fill:url(#grad0-19);stroke:none;stroke-linecap:butt;stroke-width:0.75}
		.st6 {fill:none;fill-rule:evenodd;font-size:12px;overflow:visible;stroke-linecap:square;stroke-miterlimit:3}
	]]>
	</style>

	<defs
   id="Patterns_And_Gradients">
		<linearGradient
   id="grad0-7"
   x1="0"
   y1="34.293384"
   x2="26.34227"
   y2="34.293384"
   gradientTransform="scale(0.6726831,1.4865841)"
   gradientUnits="userSpaceOnUse">
			<stop
   offset="0"
   stop-color="#27518a"
   stop-opacity="1"
   id="stop4" />
			<stop
   offset="1"
   stop-color="#2064ae"
   stop-opacity="1"
   id="stop6" />
		</linearGradient>
		<linearGradient
   id="grad0-11"
   x1="0"
   y1="34.293384"
   x2="26.34227"
   y2="34.293384"
   gradientTransform="scale(0.6726831,1.4865841)"
   gradientUnits="userSpaceOnUse">
			<stop
   offset="0"
   stop-color="#7ce6ff"
   stop-opacity="1"
   id="stop9" />
			<stop
   offset="1"
   stop-color="#a7f2ff"
   stop-opacity="1"
   id="stop11" />
		</linearGradient>
		<linearGradient
   id="grad0-19"
   x1="0"
   y1="35.091705"
   x2="43.398774"
   y2="35.091705"
   gradientTransform="scale(0.87076192,1.1484195)"
   gradientUnits="userSpaceOnUse">
			<stop
   offset="0"
   stop-color="#40c4f5"
   stop-opacity="1"
   id="stop14" />
			<stop
   offset="1"
   stop-color="#0095e6"
   stop-opacity="1"
   id="stop16" />
		</linearGradient>
	</defs>
	<g
   id="g56"
   transform="translate(-5.66929,-5.0977695)">
		<title
   id="title20">Page-1</title>
		<g
   id="group9146-1"
   transform="translate(5.66929,-34.0157)">
			<title
   id="title22">Application Supply Chain Management</title>
			<g
   id="group9147-2">
				<title
   id="title24">Sheet.9147</title>
				<g
   id="group9148-3">
					<title
   id="title26">Sheet.9148</title>
					<g
   id="shape9149-4"
   transform="translate(0,-11.866)">
						<title
   id="title28">Sheet.9149</title>
						<path
   d="M 17.72,90.14 V 59.88 c 0,-4.91 -3.97,-8.9 -8.86,-8.9 -4.89,0 -8.86,3.99 -8.86,8.9 v 19.58 c 0,5.9 4.76,10.68 10.63,10.68 z"
   class="st1"
   id="path30"
   inkscape:connector-curvature="0"
   style="fill:url(#grad0-7);stroke:none;stroke-width:0.75;stroke-linecap:butt" />
					</g>
					<g
   id="shape9150-8"
   transform="translate(38.9764,-1.1866)">
						<title
   id="title33">Sheet.9150</title>
						<path
   d="m 8.86,90.14 c 4.89,0 8.86,-3.98 8.86,-8.9 V 61.66 C 17.72,55.77 12.96,50.98 7.09,50.98 H 0 v 30.26 c 0,4.92 3.97,8.9 8.86,8.9 z"
   class="st2"
   id="path35"
   inkscape:connector-curvature="0"
   style="fill:url(#grad0-11);stroke:none;stroke-width:0.75;stroke-linecap:butt" />
					</g>
					<g
   id="shape9151-12"
   transform="translate(9.44882)">
						<title
   id="title38">Sheet.9151</title>
						<path
   d="M 8.27,79.46 V 49.2 C 8.27,44.49 4.62,40.63 0,40.32 0.2,40.31 0.39,40.3 0.59,40.3 h 17.72 c 0.1,0 0.2,0.01 0.3,0.01 0.09,0 0.19,-0.01 0.29,-0.01 5.87,0 10.63,4.79 10.63,10.68 v 30.26 c 0,4.72 3.65,8.57 8.26,8.88 -0.19,0.02 -0.39,0.02 -0.59,0.02 H 19.49 c -0.1,0 -0.2,0 -0.3,0 -0.1,0 -0.19,0 -0.29,0 -5.87,0 -10.63,-4.78 -10.63,-10.68 z"
   class="st3"
   id="path40"
   inkscape:connector-curvature="0"
   style="fill:#000000;fill-opacity:0.31999996;stroke:none;stroke-width:0.75;stroke-linecap:butt" />
					</g>
					<g
   id="shape9152-14"
   transform="translate(9.44882,-0.961143)">
						<title
   id="title43">Sheet.9152</title>
						<path
   d="M 8.27,79.46 V 49.2 C 8.27,44.49 4.62,40.63 0,40.32 0.2,40.31 0.39,40.3 0.59,40.3 h 17.72 c 0.1,0 0.2,0.01 0.3,0.01 0.09,0 0.19,-0.01 0.29,-0.01 5.87,0 10.63,4.79 10.63,10.68 v 30.26 c 0,4.72 3.65,8.57 8.26,8.88 -0.19,0.02 -0.39,0.02 -0.59,0.02 H 19.49 c -0.1,0 -0.2,0 -0.3,0 -0.1,0 -0.19,0 -0.29,0 -5.87,0 -10.63,-4.78 -10.63,-10.68 z"
   class="st4"
   id="path45"
   inkscape:connector-curvature="0"
   style="fill:#000000;fill-opacity:0.23999999;stroke:none;stroke-width:0.75;stroke-linecap:butt" />
					</g>
					<g
   id="shape9153-16"
   transform="translate(9.44858,-1.1866)">
						<title
   id="title48">Sheet.9153</title>
						<path
   d="M 8.27,79.46 V 78.87 69.97 60.48 49.2 C 8.27,44.49 4.62,40.63 0,40.32 0.2,40.31 0.39,40.3 0.59,40.3 h 17.72 c 0.1,0 0.2,0.01 0.3,0.01 0.09,0 0.19,-0.01 0.29,-0.01 5.87,0 10.63,4.79 10.63,10.68 v 0 0 30.26 c 0,4.72 3.65,8.57 8.26,8.88 -0.19,0.02 -0.39,0.02 -0.59,0.02 H 19.49 c -0.1,0 -0.2,0 -0.3,0 -0.1,0 -0.19,0 -0.29,0 -5.87,0 -10.63,-4.78 -10.63,-10.68 z"
   class="st5"
   id="path50"
   inkscape:connector-curvature="0"
   style="fill:url(#grad0-19);stroke:none;stroke-width:0.75;stroke-linecap:butt" />
					</g>
				</g>
			</g>
		</g>
	</g>
</svg>

<?xml version="1.0" encoding="UTF-8" standalone="no"?>
<!DOCTYPE svg PUBLIC "-//W3C//DTD SVG 1.1//EN" "http://www.w3.org/Graphics/SVG/1.1/DTD/svg11.dtd">
<!-- Generated by Microsoft Visio, SVG Export Application Supply Chain Management.svg Page-1 -->
<svg xmlns="http://www.w3.org/2000/svg" xmlns:xlink="http://www.w3.org/1999/xlink" xmlns:ev="http://www.w3.org/2001/xml-events"
		width="0.944882in" height="1.25197in" viewBox="0 0 68.0315 90.1417" xml:space="preserve" color-interpolation-filters="sRGB"
		class="st6">
	<style type="text/css">
	<![CDATA[
		.st1 {fill:url(#grad0-7);stroke:none;stroke-linecap:butt;stroke-width:0.75}
		.st2 {fill:url(#grad0-11);stroke:none;stroke-linecap:butt;stroke-width:0.75}
		.st3 {fill:#000000;fill-opacity:0.32;stroke:none;stroke-linecap:butt;stroke-width:0.75}
		.st4 {fill:#000000;fill-opacity:0.24;stroke:none;stroke-linecap:butt;stroke-width:0.75}
		.st5 {fill:url(#grad0-19);stroke:none;stroke-linecap:butt;stroke-width:0.75}
		.st6 {fill:none;fill-rule:evenodd;font-size:12px;overflow:visible;stroke-linecap:square;stroke-miterlimit:3}
	]]>
	</style>

	<defs id="Patterns_And_Gradients">
		<linearGradient id="grad0-7" x1="0" y1="0" x2="1" y2="0" gradientTransform="rotate(-167.55417089562 0.5 0.5)">
			<stop offset="0" stop-color="#27518a" stop-opacity="1"/>
			<stop offset="1" stop-color="#2064ae" stop-opacity="1"/>
		</linearGradient>
		<linearGradient id="grad0-11" x1="0" y1="0" x2="1" y2="0" gradientTransform="rotate(-175.32134792007 0.5 0.5)">
			<stop offset="0" stop-color="#7ce6ff" stop-opacity="1"/>
			<stop offset="1" stop-color="#a7f2ff" stop-opacity="1"/>
		</linearGradient>
		<linearGradient id="grad0-19" x1="0" y1="0" x2="1" y2="0" gradientTransform="rotate(57.840353972945 0.5 0.5)">
			<stop offset="0" stop-color="#40c4f5" stop-opacity="1"/>
			<stop offset="1" stop-color="#0095e6" stop-opacity="1"/>
		</linearGradient>
	</defs>
	<g>
		<title>Page-1</title>
		<g id="group8951-1" transform="translate(5.66929,-34.0157)">
			<title>Application Supply Chain Management</title>
			<g id="group8952-2">
				<title>Sheet.8952</title>
				<g id="group8953-3">
					<title>Sheet.8953</title>
					<g id="shape8954-4" transform="translate(-2.80775E-13,-11.866)">
						<title>Sheet.8954</title>
						<path d="M17.72 90.14 L17.72 59.88 C17.72 54.97 13.75 50.98 8.86 50.98 C3.97 50.98 0 54.97 0 59.88 L0 79.46
									 C0 85.36 4.76 90.14 10.63 90.14 L17.72 90.14 Z" class="st1"/>
					</g>
					<g id="shape8955-8" transform="translate(38.9764,-1.1866)">
						<title>Sheet.8955</title>
						<path d="M8.86 90.14 C13.75 90.14 17.72 86.16 17.72 81.24 L17.72 61.66 C17.72 55.77 12.96 50.98 7.09 50.98
									 L0 50.98 L0 81.24 C0 86.16 3.97 90.14 8.86 90.14 Z" class="st2"/>
					</g>
					<g id="shape8956-12" transform="translate(9.44882,-2.55795E-13)">
						<title>Sheet.8956</title>
						<path d="M8.27 79.46 L8.27 49.2 C8.27 44.49 4.62 40.63 0 40.32 C0.2 40.31 0.39 40.3 0.59 40.3 L18.31 40.3
									 C18.41 40.3 18.51 40.31 18.61 40.31 C18.7 40.31 18.8 40.3 18.9 40.3 C24.77 40.3 29.53 45.09
									 29.53 50.98 L29.53 81.24 C29.53 85.96 33.18 89.81 37.79 90.12 C37.6 90.14 37.4 90.14 37.2 90.14
									 L19.49 90.14 C19.39 90.14 19.29 90.14 19.19 90.14 C19.09 90.14 19 90.14 18.9 90.14 C13.03 90.14
									 8.27 85.36 8.27 79.46 Z" class="st3"/>
					</g>
					<g id="shape8957-14" transform="translate(9.44882,-0.961143)">
						<title>Sheet.8957</title>
						<path d="M8.27 79.46 L8.27 49.2 C8.27 44.49 4.62 40.63 0 40.32 C0.2 40.31 0.39 40.3 0.59 40.3 L18.31 40.3
									 C18.41 40.3 18.51 40.31 18.61 40.31 C18.7 40.31 18.8 40.3 18.9 40.3 C24.77 40.3 29.53 45.09
									 29.53 50.98 L29.53 81.24 C29.53 85.96 33.18 89.81 37.79 90.12 C37.6 90.14 37.4 90.14 37.2 90.14
									 L19.49 90.14 C19.39 90.14 19.29 90.14 19.19 90.14 C19.09 90.14 19 90.14 18.9 90.14 C13.03 90.14
									 8.27 85.36 8.27 79.46 Z" class="st4"/>
					</g>
					<g id="shape8958-16" transform="translate(9.44858,-1.1866)">
						<title>Sheet.8958</title>
						<path d="M8.27 79.46 L8.27 78.87 L8.27 69.97 L8.27 60.48 L8.27 49.2 C8.27 44.49 4.62 40.63 0 40.32 C0.2 40.31
									 0.39 40.3 0.59 40.3 L18.31 40.3 C18.41 40.3 18.51 40.31 18.61 40.31 C18.7 40.31 18.8 40.3 18.9
									 40.3 C24.77 40.3 29.53 45.09 29.53 50.98 L29.53 50.98 L29.53 50.98 L29.53 81.24 C29.53 85.96
									 33.18 89.81 37.79 90.12 C37.6 90.14 37.4 90.14 37.2 90.14 L19.49 90.14 C19.39 90.14 19.29 90.14
									 19.19 90.14 C19.09 90.14 19 90.14 18.9 90.14 C13.03 90.14 8.27 85.36 8.27 79.46 Z" class="st5"/>
					</g>
				</g>
			</g>
		</g>
	</g>
</svg>
